src/assets/filled/BitcoinRefresh.svg

<svg width="24" height="24" viewBox="0 0 24 24"  xmlns="http://www.w3.org/2000/svg">
<path d="M23.53 12.0502C23.24 11.7602 22.76 11.7602 22.47 12.0502L22.01 12.5102V12.0002C22.01 6.48023 17.52 1.99023 12 1.99023C8.95 1.99023 6.1 3.36023 4.19 5.74023C3.93 6.06023 3.98 6.54023 4.31 6.80023C4.63 7.05023 5.1 7.00023 5.36 6.68023C6.99 4.65023 9.41 3.49023 12 3.49023C16.69 3.49023 20.51 7.31023 20.51 12.0002V12.5002L20.05 12.0402C19.76 11.7502 19.28 11.7502 18.99 12.0402C18.7 12.3302 18.7 12.8102 18.99 13.1002L20.73 14.8402C20.8 14.9102 20.88 14.9602 20.97 15.0002C21.06 15.0402 21.16 15.0602 21.26 15.0602C21.36 15.0602 21.45 15.0402 21.55 15.0002C21.64 14.9602 21.72 14.9102 21.79 14.8402L23.53 13.1002C23.82 12.8202 23.82 12.3402 23.53 12.0502Z" />
<path d="M19.6899 17.1997C19.3699 16.9397 18.8899 16.9897 18.6399 17.3197C17.0099 19.3497 14.5899 20.5097 11.9999 20.5097C7.30994 20.5097 3.48994 16.6897 3.48994 11.9997V11.4997L3.94994 11.9597C4.09994 12.1097 4.28994 12.1797 4.47994 12.1797C4.66994 12.1797 4.85994 12.0997 4.99994 11.9497C5.28994 11.6597 5.28994 11.1797 4.99994 10.8897L3.26994 9.14969C3.19994 9.08969 3.10994 9.02969 3.01994 8.98969C2.83994 8.90969 2.62994 8.90969 2.44994 8.98969C2.35994 9.02969 2.27994 9.08969 2.20994 9.14969L0.469941 10.8897C0.179941 11.1797 0.179941 11.6597 0.469941 11.9497C0.759941 12.2397 1.23994 12.2397 1.52994 11.9497L1.98994 11.4897V11.9997C1.98994 17.5197 6.47994 22.0097 11.9999 22.0097C15.0499 22.0097 17.8999 20.6397 19.8099 18.2597C20.0699 17.9397 20.0199 17.4597 19.6899 17.1997Z" />
<path d="M15.45 11.64C15.72 11.24 15.87 10.77 15.87 10.25C15.87 8.92 14.7 7.75 13.37 7.75H12.55V6.75C12.55 6.34 12.21 6 11.8 6C11.39 6 11.05 6.34 11.05 6.75V7.75H9C8.59 7.75 8.25 8.09 8.25 8.5V12V15.5C8.25 15.91 8.59 16.25 9 16.25H11.05V17.25C11.05 17.66 11.39 18 11.8 18C12.21 18 12.55 17.66 12.55 17.25V16.25H14C15.52 16.25 16.75 15.13 16.75 13.75C16.75 12.86 16.23 12.08 15.45 11.64ZM9.75 9.25H13.37C13.92 9.25 14.37 9.8 14.37 10.25C14.37 10.8 13.92 11.25 13.37 11.25H9.75V9.25ZM14 14.75H9.75V12.75H13.37H14C14.69 12.75 15.25 13.2 15.25 13.75C15.25 14.3 14.69 14.75 14 14.75Z" />
</svg>

<?xml version="1.0" encoding="UTF-8"?>
<svg width="24" height="24" viewBox="0 0 24 24" xmlns="http://www.w3.org/2000/svg">
 <path d="m23.53 12.05c-0.29-0.29-0.77-0.29-1.06 0l-0.46 0.46v-0.51c0-5.52-4.49-10.01-10.01-10.01-3.05 0-5.9 1.37-7.81 3.75-0.26 0.32-0.21 0.8 0.12 1.06 0.32 0.25 0.79 0.2 1.05-0.12 1.63-2.03 4.05-3.19 6.64-3.19 4.69 0 8.51 3.82 8.51 8.51v0.5l-0.46-0.46c-0.29-0.29-0.77-0.29-1.06 0s-0.29 0.77 0 1.06l1.74 1.74c0.07 0.07 0.15 0.12 0.24 0.16s0.19 0.06 0.29 0.06 0.19-0.02 0.29-0.06c0.09-0.04 0.17-0.09 0.24-0.16l1.74-1.74c0.29-0.28 0.29-0.76 0-1.05z"/>
 <path d="m19.69 17.2c-0.32-0.26-0.8-0.21-1.05 0.12-1.63 2.03-4.05 3.19-6.64 3.19-4.69 0-8.51-3.82-8.51-8.51v-0.5l0.46 0.46c0.15 0.15 0.34 0.22 0.53 0.22s0.38-0.08 0.52-0.23c0.29-0.29 0.29-0.77 0-1.06l-1.73-1.74c-0.07-0.06-0.16-0.12-0.25-0.16-0.18-0.08-0.39-0.08-0.57 0-0.09 0.04-0.17 0.1-0.24 0.16l-1.74 1.74c-0.29 0.29-0.29 0.77 0 1.06s0.77 0.29 1.06 0l0.46-0.46v0.51c0 5.52 4.49 10.01 10.01 10.01 3.05 0 5.9-1.37 7.81-3.75 0.26-0.32 0.21-0.8-0.12-1.06z"/>
 <path d="m15.45 11.64c0.27-0.4 0.42-0.87 0.42-1.39 0-1.33-1.17-2.5-2.5-2.5h-0.82v-1c0-0.41-0.34-0.75-0.75-0.75s-0.75 0.34-0.75 0.75v1h-2.05c-0.41 0-0.75 0.34-0.75 0.75v7c0 0.41 0.34 0.75 0.75 0.75h2.05v1c0 0.41 0.34 0.75 0.75 0.75s0.75-0.34 0.75-0.75v-1h1.45c1.52 0 2.75-1.12 2.75-2.5 0-0.89-0.52-1.67-1.3-2.11zm-5.7-2.39h3.62c0.55 0 1 0.55 1 1 0 0.55-0.45 1-1 1h-3.62v-2zm4.25 5.5h-4.25v-2h4.25c0.69 0 1.25 0.45 1.25 1s-0.56 1-1.25 1z"/>
</svg>
